lib/logo_updates/nrk-logo-nrk-radio.svg

<svg width="288" height="48" viewBox="0 0 288 48" fill="none" xmlns="http://www.w3.org/2000/svg">
<path d="M0 45V3.00381H13.7802V45H0ZM32.5283 9.68773L40.4532 45H25.3721L15.9092 3.00381H24.3676C26.3072 2.97864 28.1892 3.66237 29.6607 4.92636C31.1347 6.13734 32.1473 7.81844 32.5283 9.68773ZM42.5233 45V3.00381H56.3035V45H42.5233ZM66.7116 18.9743C65.2267 18.9888 63.7656 18.6003 62.4839 17.8504C61.2193 17.1194 60.1688 16.0689 59.438 14.8041C58.6872 13.5222 58.2986 12.0607 58.3134 10.5751C58.2964 9.09861 58.6853 7.64583 59.438 6.3755C60.1766 5.12447 61.2259 4.08533 62.4839 3.35882C63.766 2.60976 65.2269 2.2213 66.7116 2.23484C68.1877 2.21895 69.6399 2.60775 70.9108 3.35882C72.1562 4.09169 73.1943 5.12996 73.9271 6.3755C74.6789 7.64618 75.0677 9.09873 75.0517 10.5751C75.0655 12.0605 74.6769 13.5218 73.9271 14.8041C73.202 16.0633 72.1627 17.113 70.9108 17.8504C69.6398 18.6029 68.1866 18.9918 66.7097 18.9743H66.7116ZM77.1807 45V3.00381H90.9621V45H77.1807ZM108.408 25.9538C108.447 25.9946 108.742 26.4776 109.295 27.403C109.848 28.3283 110.567 29.5114 111.454 30.952C112.341 32.392 113.277 33.9199 114.262 35.536C115.247 37.1521 116.174 38.6803 117.043 40.1202C117.908 41.5602 118.894 43.1867 120 45H104.859C103.912 43.4621 103.055 42.0721 102.286 40.83C101.517 39.5878 100.7 38.2471 99.8334 36.8077C98.9653 35.3698 98.1071 33.9699 97.2587 32.6081C96.4103 31.2464 95.6813 30.0536 95.0714 29.0297C94.459 28.0051 94.0348 27.3149 93.7989 26.9594C93.2139 26.0771 92.8677 25.058 92.7944 24.0019C92.853 22.9883 93.1791 22.0084 93.7397 21.1619C93.9762 20.7676 94.41 20.0675 95.0409 19.062C95.6717 18.0564 96.411 16.8637 97.2587 15.4835C98.1064 14.1034 98.9647 12.6936 99.8334 11.2543C100.702 9.81501 101.519 8.46432 102.286 7.20247C103.056 5.94193 103.914 4.54205 104.859 3.00285H120L108.289 22.1082C107.926 22.6755 107.722 23.3292 107.697 24.0019C107.736 24.7081 107.983 25.3871 108.406 25.9538H108.408Z" fill="white"/>
<path d="M156.591 27.6442C157.378 27.5238 158.154 27.3425 158.913 27.1021C160.451 26.6238 161.871 25.8282 163.082 24.7666C164.288 23.6895 165.237 22.356 165.861 20.864C166.562 19.148 166.904 17.3067 166.866 15.4535C166.893 13.2918 166.438 11.151 165.536 9.18649C164.603 7.24583 163.068 5.65888 161.16 4.66217C158.614 3.4254 155.798 2.84583 152.971 2.97674H136V44.9598H142.15V28.8761H151.196L161.663 44.9598H168.876L159.06 30.4145L156.591 27.6442ZM156.696 8.91942C157.92 9.38625 158.944 10.2646 159.592 11.4039C160.27 12.7279 160.595 14.2039 160.538 15.69C160.612 17.3349 160.212 18.9665 159.386 20.3909C158.604 21.6039 157.438 22.5198 156.075 22.9926C154.43 23.5581 152.699 23.8284 150.96 23.7909H142.15V8.12109H151.669C153.38 8.06414 155.086 8.33515 156.696 8.91942Z" fill="white"/>
<path d="M200.747 41.2354C200.315 41.2751 199.879 41.2098 199.478 41.0448C199.076 40.8799 198.721 40.6204 198.441 40.2884C197.893 39.341 197.665 38.2419 197.791 37.1545L197.909 24.9744C197.922 23.6971 197.763 22.4238 197.436 21.189C197.148 20.1065 196.668 19.0851 196.017 18.1735C195.359 17.2826 194.523 16.5377 193.563 15.9857C192.447 15.3521 191.24 14.8936 189.985 14.6265C188.451 14.295 186.884 14.1363 185.314 14.1535C184.068 14.1526 182.824 14.2313 181.589 14.389C180.421 14.5359 179.266 14.763 178.13 15.069C177.076 15.3552 176.04 15.701 175.025 16.1048L174.316 21.131C175.301 20.7762 176.238 20.4804 177.126 20.2439C178.013 20.0074 178.87 19.8104 179.697 19.6527C180.508 19.4975 181.327 19.3892 182.151 19.3284C182.958 19.268 183.756 19.238 184.545 19.2387C185.751 19.2132 186.955 19.3527 188.123 19.6527C188.975 19.8661 189.759 20.2935 190.399 20.8945C190.97 21.4793 191.377 22.2027 191.582 22.9935C191.834 23.9687 191.953 24.9735 191.937 25.9806L191.93 27.464L185.018 27.9319C182.654 27.998 180.325 28.5198 178.159 29.4684C176.538 30.1779 175.139 31.3117 174.109 32.7503C173.235 34.0305 172.771 35.5462 172.778 37.0963C172.767 38.5508 173.123 39.9845 173.813 41.265C174.536 42.5806 175.625 43.6587 176.947 44.3693C178.56 45.2084 180.363 45.616 182.18 45.5521C183.883 45.5913 185.578 45.3104 187.177 44.7242C188.559 44.1834 189.824 43.3803 190.902 42.359C191.311 41.9665 191.699 41.553 192.065 41.1202C192.18 41.7322 192.396 42.3209 192.705 42.8617C193.232 43.7672 194.043 44.4736 195.012 44.8719C196.082 45.302 197.228 45.5133 198.382 45.4929C198.737 45.4929 199.082 45.483 199.417 45.4633C199.746 45.4444 200.072 45.395 200.392 45.3156C200.708 45.2367 200.993 45.1675 201.25 45.1084C201.482 45.0568 201.709 44.9877 201.93 44.9015L202.58 40.9397C202.254 41.0519 201.917 41.1311 201.575 41.1762C201.301 41.2133 201.024 41.2331 200.747 41.2354ZM190.902 38.5746C190.261 39.0815 189.567 39.5177 188.832 39.8755C188.101 40.2317 187.326 40.4902 186.527 40.6442C185.699 40.8043 184.857 40.8835 184.013 40.8808C183.05 40.9082 182.091 40.7266 181.204 40.3485C180.483 40.0356 179.874 39.5094 179.46 38.8407C179.051 38.1319 178.846 37.3232 178.869 36.5049C178.812 35.5191 179.082 34.5423 179.637 33.7259C180.282 32.9751 181.154 32.4558 182.121 32.2476C183.632 31.892 185.183 31.733 186.734 31.7746H191.911L191.884 37.6441C191.584 37.9814 191.255 38.2934 190.902 38.5746Z" fill="white"/>
<path d="M228.719 15.5884C228.659 15.5647 228.603 15.536 228.542 15.5124C227.436 15.0961 226.299 14.7699 225.142 14.5367C223.788 14.2702 222.411 14.1418 221.032 14.1534C218.449 14.1376 215.908 14.8112 213.671 16.1047C211.363 17.4471 209.47 19.4014 208.202 21.7517C206.746 24.5286 206.033 27.6347 206.132 30.7684C206.064 33.4736 206.599 36.16 207.699 38.6327C208.658 40.7447 210.223 42.5246 212.194 43.7475C214.313 44.9952 216.741 45.6203 219.2 45.5511C220.708 45.5602 222.21 45.3611 223.664 44.9597C225.113 44.544 226.496 43.9269 227.774 43.1265C228.216 42.8535 228.661 42.5472 229.102 42.2269L229.844 44.9597H234.751V0.375L228.72 1.20292L228.719 15.5884ZM225.555 39.9038C224.207 40.4351 222.776 40.7258 221.327 40.7623C219.638 40.8115 217.965 40.4135 216.479 39.6084C215.096 38.7908 214.017 37.5454 213.404 36.0604C212.637 34.155 212.274 32.1107 212.34 30.0576C212.271 27.9548 212.675 25.8633 213.522 23.9376C214.245 22.375 215.432 21.0739 216.922 20.2123C218.544 19.3297 220.37 18.8911 222.216 18.941C223.165 18.9388 224.114 19.0082 225.053 19.1481C225.985 19.2924 226.904 19.5101 227.802 19.7994C228.091 19.8911 228.409 20.0134 228.719 20.1257V38.3498C227.713 38.9632 226.653 39.4833 225.553 39.9038H225.555Z" fill="white"/>
<path d="M243.972 44.9597H250.003V14.2117L243.972 15.0985V44.9597Z" fill="white"/>
<path d="M249.146 1.82368C248.532 1.44856 247.825 1.25382 247.106 1.26187C246.377 1.25616 245.662 1.45053 245.036 1.82368C244.42 2.18482 243.902 2.6926 243.528 3.30195C243.153 3.91577 242.959 4.62279 242.967 5.34203C242.961 6.07032 243.155 6.78608 243.528 7.41147C243.89 8.03035 244.41 8.54089 245.036 8.88974C245.668 9.24492 246.381 9.42844 247.106 9.42195C247.821 9.43071 248.526 9.24686 249.146 8.88974C249.754 8.5382 250.255 8.02703 250.594 7.41147C250.95 6.78008 251.133 6.06658 251.127 5.34203C251.135 4.62663 250.951 3.922 250.594 3.30195C250.243 2.69547 249.745 2.18711 249.146 1.82368Z" fill="white"/>
<path d="M285.954 21.3962C284.776 19.1355 282.955 17.2735 280.722 16.0447C278.258 14.7363 275.498 14.085 272.709 14.1535C269.895 14.089 267.112 14.7616 264.637 16.1048C262.353 17.3831 260.485 19.2919 259.256 21.6031C257.922 24.1966 257.261 27.084 257.334 29.9997C257.259 32.8927 257.877 35.7617 259.138 38.3667C260.27 40.6409 262.077 42.51 264.312 43.719C266.717 44.9788 269.402 45.6092 272.117 45.5512C274.959 45.6077 277.768 44.9357 280.277 43.5996C282.62 42.322 284.541 40.391 285.807 38.0414C287.18 35.4176 287.862 32.4872 287.788 29.5267C287.855 26.7069 287.225 23.9141 285.954 21.3962ZM280.366 35.8536C279.702 37.3903 278.576 38.682 277.144 39.5493C275.706 40.3729 274.071 40.792 272.414 40.7624C270.789 40.8027 269.186 40.3711 267.801 39.5197C266.431 38.6091 265.361 37.3132 264.727 35.7954C263.922 33.8475 263.54 31.7513 263.604 29.6448C263.534 27.5957 263.917 25.5564 264.727 23.6725C265.39 22.1921 266.495 20.953 267.89 20.1248C269.382 19.3038 271.066 18.8956 272.768 18.9423C274.097 18.9091 275.418 19.1611 276.642 19.6814C277.713 20.1649 278.648 20.9063 279.363 21.8396C280.124 22.8544 280.677 24.0104 280.988 25.2406C281.358 26.6789 281.537 28.1597 281.52 29.6448C281.589 31.7735 281.195 33.8919 280.366 35.8536Z" fill="white"/>
</svg>

<svg xmlns="http://www.w3.org/2000/svg" viewBox="0 0 288 48"><path fill="#fff" d="M0 45V3.004h13.78V45H0ZM32.528 9.688 40.453 45h-15.08L15.908 3.004h8.459a7.965 7.965 0 0 1 5.293 1.922 8.31 8.31 0 0 1 2.867 4.762ZM42.523 45V3.004h13.78V45h-13.78Zm24.189-26.026a8.213 8.213 0 0 1-4.228-1.124 8.336 8.336 0 0 1-3.046-3.046 8.206 8.206 0 0 1-1.125-4.229 8.056 8.056 0 0 1 1.125-4.2 8.437 8.437 0 0 1 3.046-3.016 8.232 8.232 0 0 1 4.228-1.124 8.083 8.083 0 0 1 4.199 1.124 8.503 8.503 0 0 1 3.016 3.016 8.075 8.075 0 0 1 1.125 4.2 8.226 8.226 0 0 1-1.125 4.23 8.4 8.4 0 0 1-3.016 3.045 8.059 8.059 0 0 1-4.201 1.124h.002ZM77.18 45V3.004h13.781V45H77.181Zm31.227-19.046c.039.04.334.524.887 1.449.553.925 1.272 2.108 2.159 3.549a1143.28 1143.28 0 0 1 5.589 9.168A854.89 854.89 0 0 0 120 45h-15.141c-.947-1.538-1.804-2.928-2.573-4.17a382.214 382.214 0 0 1-2.453-4.022 351.934 351.934 0 0 0-2.574-4.2 213.445 213.445 0 0 1-2.188-3.578 62.753 62.753 0 0 0-1.272-2.07 6.119 6.119 0 0 1-1.005-2.958 5.744 5.744 0 0 1 .946-2.84c.236-.394.67-1.095 1.3-2.1.632-1.006 1.371-2.198 2.219-3.579a636.03 636.03 0 0 0 2.574-4.229c.869-1.439 1.686-2.79 2.453-4.052.77-1.26 1.628-2.66 2.573-4.2H120l-11.711 19.106a3.773 3.773 0 0 0-.592 1.894c.039.706.286 1.385.709 1.952h.002ZM156.591 27.644c.787-.12 1.563-.301 2.322-.542a11.508 11.508 0 0 0 4.169-2.335 10.839 10.839 0 0 0 2.779-3.903 13.571 13.571 0 0 0 1.005-5.41 14.584 14.584 0 0 0-1.33-6.268 9.986 9.986 0 0 0-4.376-4.524 16.95 16.95 0 0 0-8.189-1.685H136V44.96h6.15V28.876h9.046l10.467 16.084h7.213l-9.816-14.546-2.469-2.77Zm.105-18.725a5.647 5.647 0 0 1 2.896 2.485 8.673 8.673 0 0 1 .946 4.286 8.6 8.6 0 0 1-1.152 4.7 6.458 6.458 0 0 1-3.311 2.603 14.753 14.753 0 0 1-5.115.798h-8.81V8.12h9.519a13.426 13.426 0 0 1 5.027.798ZM200.747 41.235a2.69 2.69 0 0 1-2.306-.947 5.09 5.09 0 0 1-.65-3.133l.118-12.18a14.222 14.222 0 0 0-.473-3.786 9.303 9.303 0 0 0-1.419-3.015 8.022 8.022 0 0 0-2.454-2.188 12.531 12.531 0 0 0-3.578-1.36 21.025 21.025 0 0 0-4.671-.473c-1.246 0-2.49.078-3.725.236a25.556 25.556 0 0 0-3.459.68c-1.054.286-2.09.632-3.105 1.036l-.709 5.026c.985-.355 1.922-.65 2.81-.887a36.615 36.615 0 0 1 2.571-.591c.811-.155 1.63-.264 2.454-.325.807-.06 1.605-.09 2.394-.09 1.206-.025 2.41.115 3.578.415.852.213 1.636.64 2.276 1.242a4.686 4.686 0 0 1 1.183 2.099c.252.975.371 1.98.355 2.987l-.007 1.483-6.912.468a18.379 18.379 0 0 0-6.859 1.536 9.827 9.827 0 0 0-4.05 3.282 7.647 7.647 0 0 0-1.331 4.346 8.65 8.65 0 0 0 1.035 4.169 7.778 7.778 0 0 0 3.134 3.104 10.537 10.537 0 0 0 5.233 1.183c1.703.04 3.398-.242 4.997-.828a11.52 11.52 0 0 0 3.725-2.365c.409-.392.797-.806 1.163-1.239.115.612.331 1.2.64 1.742a4.765 4.765 0 0 0 2.307 2.01c1.07.43 2.216.641 3.37.62.355 0 .7-.009 1.035-.029.329-.019.655-.068.975-.147.316-.08.601-.149.858-.208.232-.051.459-.12.68-.206l.65-3.962a5.164 5.164 0 0 1-1.005.236 6.583 6.583 0 0 1-.828.06Zm-9.845-2.66c-.641.506-1.335.943-2.07 1.3a9.265 9.265 0 0 1-2.305.77c-.828.16-1.67.238-2.514.236a6.682 6.682 0 0 1-2.809-.532 3.858 3.858 0 0 1-1.744-1.508 4.426 4.426 0 0 1-.591-2.336 4.483 4.483 0 0 1 .768-2.78 4.533 4.533 0 0 1 2.484-1.477 18.03 18.03 0 0 1 4.613-.473h5.177l-.027 5.87c-.3.336-.629.648-.982.93ZM228.719 15.588c-.06-.023-.116-.052-.177-.076a21.98 21.98 0 0 0-3.4-.975 20.394 20.394 0 0 0-4.11-.384 14.528 14.528 0 0 0-7.361 1.952 14.495 14.495 0 0 0-5.469 5.647 18.18 18.18 0 0 0-2.07 9.016 18.221 18.221 0 0 0 1.567 7.865 11.726 11.726 0 0 0 4.495 5.114 13.082 13.082 0 0 0 7.006 1.804c1.508.01 3.01-.19 4.464-.591a16.115 16.115 0 0 0 4.11-1.834c.442-.273.887-.579 1.328-.9l.742 2.734h4.907V.375l-6.031.828-.001 14.385Zm-3.164 24.316a12.38 12.38 0 0 1-4.228.858 9.592 9.592 0 0 1-4.848-1.154 7.402 7.402 0 0 1-3.075-3.548 14.802 14.802 0 0 1-1.064-6.002 14.056 14.056 0 0 1 1.182-6.12 8.355 8.355 0 0 1 3.4-3.726 10.483 10.483 0 0 1 5.294-1.271 18.96 18.96 0 0 1 2.837.207c.932.144 1.851.362 2.749.651.289.092.607.214.917.327V38.35a19.362 19.362 0 0 1-3.166 1.554h.002ZM243.972 44.96h6.031V14.212l-6.031.886V44.96ZM249.146 1.824a3.83 3.83 0 0 0-2.04-.562 3.98 3.98 0 0 0-2.07.562 4.353 4.353 0 0 0-1.508 1.478 3.83 3.83 0 0 0-.561 2.04 3.976 3.976 0 0 0 .561 2.07c.362.618.882 1.129 1.508 1.478a4.148 4.148 0 0 0 2.07.532 3.99 3.99 0 0 0 2.04-.532 3.858 3.858 0 0 0 1.448-1.479 4.142 4.142 0 0 0 .533-2.069 4 4 0 0 0-.533-2.04 4.176 4.176 0 0 0-1.448-1.478ZM285.954 21.396a12.928 12.928 0 0 0-5.232-5.351 16.236 16.236 0 0 0-8.013-1.892 16.148 16.148 0 0 0-8.072 1.952 13.64 13.64 0 0 0-5.381 5.498A17.405 17.405 0 0 0 257.334 30a18.125 18.125 0 0 0 1.804 8.367 12.334 12.334 0 0 0 5.174 5.352 16.08 16.08 0 0 0 7.805 1.832 16.656 16.656 0 0 0 8.16-1.951 13.77 13.77 0 0 0 5.53-5.559 17.426 17.426 0 0 0 1.981-8.514 17.14 17.14 0 0 0-1.834-8.13Zm-5.588 14.458a8.056 8.056 0 0 1-3.222 3.695 9.188 9.188 0 0 1-4.73 1.213 8.412 8.412 0 0 1-4.613-1.242 8.326 8.326 0 0 1-3.074-3.725 14.917 14.917 0 0 1-1.123-6.15c-.07-2.05.313-4.089 1.123-5.973a7.865 7.865 0 0 1 3.163-3.547 9.574 9.574 0 0 1 4.878-1.183 9.309 9.309 0 0 1 3.874.74 7.116 7.116 0 0 1 2.721 2.158 9.586 9.586 0 0 1 1.625 3.4c.37 1.439.549 2.92.532 4.405a14.725 14.725 0 0 1-1.154 6.209Z"/></svg>
